icons/mark-github-24.svg

<svg width="24" height="24" viewBox="0 0 24 24" fill="none" xmlns="http://www.w3.org/2000/svg">
<path d="M10.2256 17.2842C7.26074 16.9248 5.17188 14.791 5.17188 12.0283C5.17188 10.9053 5.57617 9.69238 6.25 8.88379C5.95801 8.14258 6.00293 6.57031 6.33984 5.91895C7.23828 5.80664 8.45117 6.27832 9.16992 6.92969C10.0234 6.66016 10.9219 6.52539 12.0225 6.52539C13.123 6.52539 14.0215 6.66016 14.8301 6.90723C15.5264 6.27832 16.7617 5.80664 17.6602 5.91895C17.9746 6.52539 18.0195 8.09766 17.7275 8.86133C18.4463 9.71484 18.8281 10.8604 18.8281 12.0283C18.8281 14.791 16.7393 16.8799 13.7295 17.2617C14.4932 17.7559 15.0098 18.834 15.0098 20.0693V22.4053C15.0098 23.0791 15.5713 23.4609 16.2451 23.1914C20.3105 21.6416 23.5 17.5762 23.5 12.5449C23.5 6.18848 18.334 1 11.9775 1C5.62109 1 0.5 6.18848 0.5 12.5449C0.5 17.5312 3.66699 21.6641 7.93457 23.2139C8.54102 23.4385 9.125 23.0342 9.125 22.4277V20.6309C8.81055 20.7656 8.40625 20.8555 8.04688 20.8555C6.56445 20.8555 5.68848 20.0469 5.05957 18.542C4.8125 17.9355 4.54297 17.5762 4.02637 17.5088C3.75684 17.4863 3.66699 17.374 3.66699 17.2393C3.66699 16.9697 4.11621 16.7676 4.56543 16.7676C5.2168 16.7676 5.77832 17.1719 6.3623 18.0029C6.81152 18.6543 7.2832 18.9463 7.84473 18.9463C8.40625 18.9463 8.76562 18.7441 9.28223 18.2275C9.66406 17.8457 9.95605 17.5088 10.2256 17.2842Z" fill="#010409"/>
</svg>

<svg xmlns="http://www.w3.org/2000/svg" width="24" height="24" viewBox="0 0 24 24"><path d="M10.226 17.284c-2.965-.359-5.054-2.493-5.054-5.256 0-1.123.404-2.336 1.078-3.144-.292-.741-.247-2.314.09-2.965.898-.112 2.111.359 2.83 1.011.853-.27 1.752-.405 2.853-.405 1.1 0 1.998.135 2.807.382.696-.629 1.932-1.1 2.83-.988.315.606.36 2.179.067 2.942.719.854 1.101 1.999 1.101 3.167 0 2.763-2.089 4.852-5.099 5.234.764.494 1.281 1.572 1.281 2.807v2.336c0 .674.561 1.056 1.235.786 4.066-1.549 7.255-5.615 7.255-10.646C23.5 6.188 18.334 1 11.977 1S.5 6.188.5 12.545c0 4.986 3.167 9.119 7.435 10.669.606.225 1.19-.18 1.19-.786v-1.797a2.9 2.9 0 0 1-1.078.224c-1.483 0-2.359-.808-2.987-2.313-.248-.606-.517-.966-1.034-1.033-.269-.023-.359-.135-.359-.27 0-.269.449-.471.898-.471.652 0 1.213.404 1.797 1.235.45.651.921.943 1.483.943.561 0 .921-.202 1.437-.719.382-.381.674-.718.944-.943"/></svg>
